src/assets/skills/critical-thinking.svg

<svg height="512pt" viewBox="0 0 512 512" width="512pt" xmlns="http://www.w3.org/2000/svg" xmlns:xlink="http://www.w3.org/1999/xlink"><clipPath id="a"><path d="m0 0h512v512h-512z"/></clipPath><g clip-path="url(#a)"><circle cx="256" cy="256" fill="#ff7058" r="256"/><path d="m398.752 178.947c-2.738-25.246-11.051-48.463-28.997-66.408-14.194-14.194-31.632-28.084-57.79-33.154-19.669-3.852-45.725-3.751-65.698-1.52-32.139 3.447-57.587 21.088-78.878 45.522-27.78 32.038-20.886 82.832-44.915 117.709-3.447 4.968-7.502 9.733-9.733 15.31-2.23 5.677-2.129 12.774 2.231 17.032 4.562 4.461 11.963 4.259 17.438 7.604 8.213 4.968 9.936 16.222 8.72 25.752-1.116 9.531-4.259 19.162-2.231 28.49 2.231 10.341 10.443 18.554 19.77 23.623 9.328 4.968 19.872 7.198 30.213 9.733 9.632 2.332 20.785 6.793 24.029 15.512h.203v.608c.304 1.014.608 2.13.709 3.245.102.912.102 1.825 0 2.636 0 .507-.101 1.014-.202 1.521-.507 2.636-.507 30.922-.507 30.922 0 6.489 5.373 11.66 11.862 11.457 2.332-.101 81.514 2.028 119.433.406 5.475-.203 11.355-.609 15.715-3.955 5.88-4.461 7.198-12.673 7.604-20.074 3.447-52.721-13.789-79.994 9.935-127.138 3.954-7.908 8.415-15.614 12.268-23.623 14.498-30.315 10.646-64.786 8.821-81.21z" fill="#ffd05b"/><path d="m291.688 183.103v-19.669l-11.153-.912c-1.115-4.36-2.838-8.415-5.069-12.268l7.199-8.516-13.89-13.89-8.517 7.198c-3.751-2.23-7.807-3.954-12.268-5.069l-.912-11.152h-19.669l-.912 11.152c-4.36 1.115-8.415 2.839-12.268 5.069l-8.517-7.198-13.889 13.89 7.198 8.516c-2.231 3.752-3.954 7.807-5.069 12.268l-11.153.912v19.669l11.153.913c1.115 4.359 2.838 8.415 5.069 12.268l-7.198 8.516 13.889 13.89 8.517-7.199c3.751 2.231 7.807 3.955 12.268 5.07l.912 11.152h19.669l.912-11.152c4.36-1.115 8.416-2.839 12.268-5.07l8.517 7.199 13.89-13.89-7.199-8.516c2.231-3.752 3.954-7.807 5.069-12.268zm-54.444 16.121c-14.296 0-25.854-11.558-25.854-25.854 0-14.295 11.558-25.853 25.854-25.853 14.295 0 25.853 11.558 25.853 25.853 0 14.194-11.558 25.854-25.853 25.854z" fill="#324a5e"/><path d="m364.787 231.971v-14.498l-8.212-.709c-.811-3.245-2.028-6.185-3.751-9.024l5.373-6.286-10.24-10.24-6.286 5.374c-2.737-1.622-5.779-2.94-9.023-3.752l-.71-8.212h-14.498l-.71 8.212c-3.244.812-6.184 2.028-9.023 3.752l-6.286-5.374-10.24 10.24 5.373 6.286c-1.622 2.738-2.94 5.779-3.751 9.024l-8.212.709v14.498l8.212.71c.811 3.245 2.028 6.185 3.751 9.024l-5.373 6.285 10.24 10.24 6.286-5.272c2.737 1.623 5.779 2.941 9.023 3.752l.71 8.212h14.498l.71-8.212c3.244-.811 6.184-2.028 9.023-3.752l6.286 5.272 10.24-10.24-5.373-6.285c1.622-2.738 2.94-5.779 3.751-9.024zm-40.047 11.761c-10.544 0-19.061-8.516-19.061-19.06s8.517-19.061 19.061-19.061 19.06 8.517 19.06 19.061-8.516 19.06-19.06 19.06z" fill="#fff"/></g></svg>

<?xml version="1.0" encoding="UTF-8" standalone="no"?><!-- Generator: Gravit.io --><svg xmlns="http://www.w3.org/2000/svg" xmlns:xlink="http://www.w3.org/1999/xlink" style="isolation:isolate" viewBox="0 0 512 512" width="512pt" height="512pt"><defs><clipPath id="_clipPath_LGJJADHEENHLAOkwoe98AmCpBPL9MY2q"><rect width="512" height="512"/></clipPath></defs><g clip-path="url(#_clipPath_LGJJADHEENHLAOkwoe98AmCpBPL9MY2q)"><g><circle vector-effect="non-scaling-stroke" cx="256" cy="256" r="256" fill="rgb(255,112,88)"/><path d=" M 398.752 178.947 C 396.014 153.701 387.701 130.484 369.755 112.539 C 355.561 98.345 338.123 84.455 311.965 79.385 C 292.296 75.533 266.24 75.634 246.267 77.865 C 214.128 81.312 188.68 98.953 167.389 123.387 C 139.609 155.425 146.503 206.219 122.474 241.096 C 119.027 246.064 114.972 250.829 112.741 256.406 C 110.511 262.083 110.612 269.18 114.972 273.438 C 119.534 277.899 126.935 277.697 132.41 281.042 C 140.623 286.01 142.346 297.264 141.13 306.794 C 140.014 316.325 136.871 325.956 138.899 335.284 C 141.13 345.625 149.342 353.838 158.669 358.907 C 167.997 363.875 178.541 366.105 188.882 368.64 C 198.514 370.972 209.667 375.433 212.911 384.152 L 213.114 384.152 L 213.114 384.76 C 213.418 385.774 213.722 386.89 213.823 388.005 C 213.925 388.917 213.925 389.83 213.823 390.641 C 213.823 391.148 213.722 391.655 213.621 392.162 C 213.114 394.798 213.114 423.084 213.114 423.084 C 213.114 429.573 218.487 434.744 224.976 434.541 C 227.308 434.44 306.49 436.569 344.409 434.947 C 349.884 434.744 355.764 434.338 360.124 430.992 C 366.004 426.531 367.322 418.319 367.728 410.918 C 371.175 358.197 353.939 330.924 377.663 283.78 C 381.617 275.872 386.078 268.166 389.931 260.157 C 404.429 229.842 400.577 195.371 398.752 178.947 Z " fill="rgb(255,208,91)"/><path d=" M 291.688 183.103 L 291.688 163.434 L 280.535 162.522 C 279.42 158.162 277.697 154.107 275.466 150.254 L 282.665 141.738 L 268.775 127.848 L 260.258 135.046 C 256.507 132.816 252.451 131.092 247.99 129.977 L 247.078 118.825 L 227.409 118.825 L 226.497 129.977 C 222.137 131.092 218.082 132.816 214.229 135.046 L 205.712 127.848 L 191.823 141.738 L 199.021 150.254 C 196.79 154.006 195.067 158.061 193.952 162.522 L 182.799 163.434 L 182.799 183.103 L 193.952 184.016 C 195.067 188.375 196.79 192.431 199.021 196.284 L 191.823 204.8 L 205.712 218.69 L 214.229 211.491 C 217.98 213.722 222.036 215.446 226.497 216.561 L 227.409 227.713 L 247.078 227.713 L 247.99 216.561 C 252.35 215.446 256.406 213.722 260.258 211.491 L 268.775 218.69 L 282.665 204.8 L 275.466 196.284 C 277.697 192.532 279.42 188.477 280.535 184.016 L 291.688 183.103 Z  M 237.244 199.224 C 222.948 199.224 211.39 187.666 211.39 173.37 C 211.39 159.075 222.948 147.517 237.244 147.517 C 251.539 147.517 263.097 159.075 263.097 173.37 C 263.097 187.564 251.539 199.224 237.244 199.224 Z " fill="rgb(50,74,94)"/><path d=" M 364.787 231.971 L 364.787 217.473 L 356.575 216.764 C 355.764 213.519 354.547 210.579 352.824 207.74 L 358.197 201.454 L 347.957 191.214 L 341.671 196.588 C 338.934 194.966 335.892 193.648 332.648 192.836 L 331.938 184.624 L 317.44 184.624 L 316.73 192.836 C 313.486 193.648 310.546 194.864 307.707 196.588 L 301.421 191.214 L 291.181 201.454 L 296.554 207.74 C 294.932 210.478 293.614 213.519 292.803 216.764 L 284.591 217.473 L 284.591 231.971 L 292.803 232.681 C 293.614 235.926 294.831 238.866 296.554 241.705 L 291.181 247.99 L 301.421 258.23 L 307.707 252.958 C 310.444 254.581 313.486 255.899 316.73 256.71 L 317.44 264.922 L 331.938 264.922 L 332.648 256.71 C 335.892 255.899 338.832 254.682 341.671 252.958 L 347.957 258.23 L 358.197 247.99 L 352.824 241.705 C 354.446 238.967 355.764 235.926 356.575 232.681 L 364.787 231.971 Z  M 324.74 243.732 C 314.196 243.732 305.679 235.216 305.679 224.672 C 305.679 214.128 314.196 205.611 324.74 205.611 C 335.284 205.611 343.8 214.128 343.8 224.672 C 343.8 235.216 335.284 243.732 324.74 243.732 Z " fill="rgb(255,255,255)"/></g></g></svg>
